icon_installer/data/icons/scalable/actions/show-wheat-symbolic.svg

<?xml version="1.0" encoding="UTF-8"?>
<svg height="16px" viewBox="0 0 16 16" width="16px" xmlns="http://www.w3.org/2000/svg">
    <path d="m 6 0 v 1 c 0 0.550781 0.449219 1 1 1 h 1 v -1 c 0 -0.550781 -0.449219 -1 -1 -1 z m 4 0 c -0.550781 0 -1 0.449219 -1 1 v 1 h 1 c 0.550781 0 1 -0.449219 1 -1 v -1 z m -1.5 2 c -0.277344 0 -0.5 0.222656 -0.5 0.5 v 13 c 0 0.277344 0.222656 0.5 0.5 0.5 s 0.5 -0.222656 0.5 -0.5 v -13 c 0 -0.277344 -0.222656 -0.5 -0.5 -0.5 z m -3.5 1 v 1 c 0 0.550781 0.449219 1 1 1 h 1 v -1 c 0 -0.550781 -0.449219 -1 -1 -1 z m 6 0 c -0.550781 0 -1 0.449219 -1 1 v 1 h 1 c 0.550781 0 1 -0.449219 1 -1 v -1 z m -7 3 v 1.5 c 0 0.828125 0.671875 1.5 1.5 1.5 h 1.5 v -1.5 c 0 -0.828125 -0.671875 -1.5 -1.5 -1.5 z m 7.5 0 c -0.828125 0 -1.5 0.671875 -1.5 1.5 v 1.5 h 1.5 c 0.828125 0 1.5 -0.671875 1.5 -1.5 v -1.5 z m -8.5 4 v 2 c 0 1.105469 0.894531 2 2 2 h 2 v -2 c 0 -1.105469 -0.894531 -2 -2 -2 z m 9 0 c -1.105469 0 -2 0.894531 -2 2 v 2 h 2 c 1.105469 0 2 -0.894531 2 -2 v -2 z m 0 0" fill="#222222"/>
</svg>

<svg xmlns="http://www.w3.org/2000/svg" width="16" height="16"><path fill="#222" d="M6 0v1c0 .55.45 1 1 1h1V1c0-.55-.45-1-1-1zm4 0c-.55 0-1 .45-1 1v1h1c.55 0 1-.45 1-1V0zM8.5 2c-.277 0-.5.223-.5.5v13a.499.499 0 1 0 1 0v-13c0-.277-.223-.5-.5-.5zM5 3v1c0 .55.45 1 1 1h1V4c0-.55-.45-1-1-1zm6 0c-.55 0-1 .45-1 1v1h1c.55 0 1-.45 1-1V3zM4 6v1.5A1.5 1.5 0 0 0 5.5 9H7V7.5A1.5 1.5 0 0 0 5.5 6zm7.5 0A1.5 1.5 0 0 0 10 7.5V9h1.5A1.5 1.5 0 0 0 13 7.5V6zM3 10v2a2 2 0 0 0 2 2h2v-2a2 2 0 0 0-2-2zm9 0a2 2 0 0 0-2 2v2h2a2 2 0 0 0 2-2v-2zm0 0"/></svg>
